X:1
T:Title
%%score { ( 1 4 ) | ( 2 3 ) }
L:1/8
Q:1/4=100
M:6/4
K:G
V:1 treble nm="Grand Piano"
V:4 treble 
V:2 treble 
V:3 treble 
V:1
 B2 _B2 [DG=B]2 [EGc]4 [DGB]2 | F2- [F^G]2 [CFA]2 [DFB]4 [CFA]2 | %2
w: J.~H.~Tenney * * * *||
 [B,EG]4 [B,EG]2 [B,^DF]4 [B,EG]2 | [^CEA]4 [CGB]2 .[DFA]6 | G2- [G_B]2 [DG=B]2 [EGc]4 [DGB]2 | %5
w: |||
 F2- [F^G]2 [CFA]2 [DFB]4 [CFA]2 | [B,EG]4 [A,^DF]2 [G,E]2 [=DF]2 [G,DG]2 | %7
w: ||
 [CEA]4 [A,DF]2 [B,DG]6 | D4 G2 G4 F2 | D4 A2 A4 G2 | D4 B2 B2 A2 [^CG]2 | [DFA]12 | %12
w: |||||
 G2- [G_B]2 [DG=B]2 [EGc]4 [DGB]2 | F2- [F^G]2 [CFA]2 [DFB]4 [CFA]2 | %14
w: ||
 [B,EG]4 [A,^DF]2 [G,E]2 [=DF]2 [G,DG]2 | [CEA]4 [A,DF]2 [B,DG]6 |] %16
w: ||
V:2
 .D6 z6 | z2 B,2 D,2 D,4 D,2 | E,4 E,2 B,,4 E,2 | A,,4 A,,2 z4[K:treble] _B2 | %4
 z2 ^C2 G,2 G,4[K:bass] G,2 | z2 B,2 D,2 D,4 D,2 | E,4 B,,2 z2 A,2 B,,2 | A,,4 D,2 G,,6 | %8
 [G,B,]4 [G,B,D]2 [A,CD]4 [A,CD]2 | [F,C]4 [D,CD]2 [G,CD]4 [G,B,D]2 | %10
 [G,B,]4 [G,D]2 [E,^CE]4 A,,2 | D,12 | z2 ^C2 G,2 G,4 G,2 | z2 B,2 D,2 D,4 D,2 | %14
 E,4 B,,2 z2 A,2 B,,2 | A,,4 D,2 G,,6 |] %16
V:3
 [G,G]2- [G,^CG]2 G,2 G,4 G,2 | .D,6 z6 | x12 | z6 D,6[K:treble] | .G,6 z6[K:bass] | .D,6 z6 | %6
 z6 .C,6 | x12 | x12 | x12 | x12 | x12 | .G,6 z6 | .D,6 z6 | z6 .C,6 | x12 |] %16
V:4
 x12 | .[CA]6 z6 | x12 | x12 | .[DB]6 z6 | .[CA]6 z6 | x12 | x12 | x12 | x12 | x12 | x12 | %12
 .[DB]6 z6 | .[CA]6 z6 | x12 | x12 |] %16

